assets/img/icons/duotone-icons/Media/Playlist#2.svg

<?xml version="1.0" encoding="UTF-8"?>
<svg width="24px" height="24px" viewBox="0 0 24 24" version="1.1" xmlns="http://www.w3.org/2000/svg" xmlns:xlink="http://www.w3.org/1999/xlink">
    <!-- Generator: Sketch 52.2 (67145) - http://www.bohemiancoding.com/sketch -->
    <title>Stockholm-icons / Media / Playlist#2</title>
    <desc>Created with Sketch.</desc>
    <g id="Stockholm-icons-/-Media-/-Playlist#2" stroke="none" stroke-width="1" fill="none" fill-rule="evenodd">
        <rect id="bound" x="0" y="0" width="24" height="24"></rect>
        <path d="M11.5,5 L18.5,5 C19.3284271,5 20,5.67157288 20,6.5 C20,7.32842712 19.3284271,8 18.5,8 L11.5,8 C10.6715729,8 10,7.32842712 10,6.5 C10,5.67157288 10.6715729,5 11.5,5 Z M5.5,17 L18.5,17 C19.3284271,17 20,17.6715729 20,18.5 C20,19.3284271 19.3284271,20 18.5,20 L5.5,20 C4.67157288,20 4,19.3284271 4,18.5 C4,17.6715729 4.67157288,17 5.5,17 Z M5.5,11 L18.5,11 C19.3284271,11 20,11.6715729 20,12.5 C20,13.3284271 19.3284271,14 18.5,14 L5.5,14 C4.67157288,14 4,13.3284271 4,12.5 C4,11.6715729 4.67157288,11 5.5,11 Z" id="Combined-Shape" fill="#335EEA" opacity="0.3"></path>
        <path d="M4.82866499,9.40751652 L7.70335558,6.90006821 C7.91145727,6.71855155 7.9330087,6.40270347 7.75149204,6.19460178 C7.73690043,6.17787308 7.72121098,6.16213467 7.70452782,6.14749103 L4.82983723,3.6242308 C4.62230202,3.44206673 4.30638833,3.4626341 4.12422426,3.67016931 C4.04415337,3.76139218 4,3.87862714 4,4.00000654 L4,9.03071508 C4,9.30685745 4.22385763,9.53071508 4.5,9.53071508 C4.62084305,9.53071508 4.73759731,9.48695028 4.82866499,9.40751652 Z" id="Path-10" fill="#335EEA"></path>
    </g>
</svg>

<svg width="24" height="24" viewBox="0 0 24 24" xmlns="http://www.w3.org/2000/svg"><g fill="none" fill-rule="evenodd"><path d="M0 0h24v24H0z"/><path d="M11.5 5h7a1.5 1.5 0 010 3h-7a1.5 1.5 0 010-3zm-6 12h13a1.5 1.5 0 010 3h-13a1.5 1.5 0 010-3zm0-6h13a1.5 1.5 0 010 3h-13a1.5 1.5 0 010-3z" fill="#335EEA" opacity=".3"/><path d="M4.829 9.408L7.703 6.9a.5.5 0 00.002-.753L4.83 3.624A.5.5 0 004 4v5.03a.5.5 0 00.829.378z" fill="#335EEA"/></g></svg>
